lib/flags/m/AS.svg

<svg xmlns="http://www.w3.org/2000/svg" fill="none" viewBox="0 0 20 15"><mask id="AS_svg__a" width="20" height="15" x="0" y="0" mask-type="alpha" maskUnits="userSpaceOnUse"><path fill="#fff" d="M0 0H20V15H0z"/></mask><g mask="url(#AS_svg__a)"><path fill="#F7FCFF" fill-rule="evenodd" d="M0 0H20V15H0V0Z" clip-rule="evenodd"/><path fill="#3547A0" stroke="#E31D1C" stroke-width="1.25" d="M0 -0.625H-0.625V0V7.06687L-1.78 7.5L-0.625 7.93313V15V15.625H0H20L20.2195 14.4148L1.78 7.5L20.2195 0.585206L20 -0.625H0Z"/><path fill="#C44800" fill-rule="evenodd" d="M17.556 3.76703C17.556 3.76703 12.5164 5.07552 12.5164 5.27686C12.5164 5.47819 12.063 6.11612 12.1558 6.28265C12.2487 6.44918 12.4898 6.66988 12.6878 6.55953C12.8859 6.44918 13.3562 6.00578 13.1984 6.28265C13.0405 6.55953 14.0471 6.88145 13.6227 7.49292C13.6227 7.49292 14.1325 7.19905 13.8857 8.8702L15.0993 9.21606C15.0993 9.21606 16.4546 8.86072 15.8359 7.84379H16.5543C16.5543 7.84379 16.2567 6.52597 16.6966 6.28265C17.1365 6.03933 16.2482 5.85439 16.2482 5.85439C18.1262 4.78531 17.556 3.76703 17.556 3.76703Z" clip-rule="evenodd"/><path fill="#FFC221" fill-rule="evenodd" d="M16.7217 9.35653L13.6796 8.84241L13.2811 8.30908L11.554 8.65683L13.0702 9.51572L13.5798 9.24142L16.7217 9.74304V9.35653Z" clip-rule="evenodd"/><path fill="#FFC221" fill-rule="evenodd" d="M17.1889 9.82426V9.52287L13.7781 9.31534C13.7781 9.31534 13.5725 9.125 13.0652 9.125 12.5579 9.125 12.4999 9.52287 12.4999 9.52287 12.4999 9.52287 12.7908 10.1027 13.3548 10.1027 13.9189 10.1027 14.796 10.2382 15.0336 10.5171 15.2711 10.796 16.2556 10.3738 16.2556 10.3738 16.2556 10.3738 15.8349 9.65032 15.2952 9.87653 14.7555 10.1027 13.7781 9.76696 13.7781 9.64492 13.7781 9.52287 17.1889 9.82426 17.1889 9.82426zM11.4284 7.38391C11.4284 7.38391 11.0977 8.09258 11.2178 8.36054 11.7459 8.91204 12.7059 8.0335 12.7059 8.0335L11.4284 7.38391z" clip-rule="evenodd"/><path fill="#979797" fill-rule="evenodd" d="M16.6422 7.72193C16.9931 7.54147 17.172 7.20724 17.172 6.77126C17.172 6.43564 17.0922 6.1705 16.9155 6.00102V5.77222L16.6058 5.76937C13.8316 5.74391 12.2697 6.01843 11.817 6.7052C11.3592 7.39971 11.3992 7.99297 12.0223 8.28092L12.2979 8.2743C13.6447 7.57158 15.0152 7.39712 16.4239 7.7473L16.6422 7.72193ZM12.0779 6.87718C12.4435 6.32264 13.9518 6.05753 16.603 6.08186V6.16067C16.774 6.24275 16.8595 6.44628 16.8595 6.77126C16.8595 7.09624 16.7394 7.3205 16.4993 7.44403C15.0157 7.07523 13.5671 7.25963 12.1534 7.99724C11.7376 7.80508 11.7124 7.43173 12.0779 6.87718Z" clip-rule="evenodd"/><path fill="#F7FCFF" d="M16.603 6.08186C13.9518 6.05753 12.4435 6.32263 12.078 6.87718C11.7124 7.43173 11.7376 7.80508 12.1534 7.99724C13.5671 7.25962 15.0157 7.07522 16.4993 7.44403C16.7395 7.3205 16.8596 7.09624 16.8596 6.77125C16.8596 6.44627 16.774 6.24274 16.603 6.16067V6.08186Z"/></g></svg>

<svg xmlns="http://www.w3.org/2000/svg" fill="none" viewBox="0 0 20 15"><mask id="AS_svg__a" width="20" height="15" x="0" y="0" maskUnits="userSpaceOnUse"><path fill="#fff" d="M0 0h20v15H0z"/></mask><g mask="url(#AS_svg__a)"><path fill="#F7FCFF" fill-rule="evenodd" d="M0 0h20v15H0V0z" clip-rule="evenodd"/><path fill="#3547A0" stroke="#E31D1C" stroke-width="1.25" d="M0-.625h-.625v7.692L-1.78 7.5l1.155.433v7.692H20l.22-1.21L1.78 7.5 20.22.585 20-.625H0z"/><path fill="#C44800" fill-rule="evenodd" d="M17.556 3.767s-5.04 1.309-5.04 1.51c0 .201-.453.84-.36 1.006.093.166.334.387.532.277.198-.11.668-.554.51-.277-.157.277.85.598.425 1.21 0 0 .51-.294.263 1.377l1.213.346s1.356-.355.737-1.372h.718s-.297-1.318.143-1.561c.44-.244-.449-.429-.449-.429 1.878-1.069 1.308-2.087 1.308-2.087z" clip-rule="evenodd"/><path fill="#FFC221" fill-rule="evenodd" d="M16.722 9.357l-3.042-.515-.399-.533-1.727.348 1.516.859.51-.275 3.142.502v-.386z" clip-rule="evenodd"/><path fill="#FFC221" fill-rule="evenodd" d="M17.189 9.824v-.301l-3.41-.208s-.207-.19-.714-.19-.565.398-.565.398.29.58.855.58c.564 0 1.441.135 1.679.414.237.279 1.222-.143 1.222-.143s-.421-.724-.96-.497c-.54.226-1.518-.11-1.518-.232 0-.122 3.411.18 3.411.18zm-5.761-2.44s-.33.709-.21.977c.528.551 1.488-.328 1.488-.328l-1.278-.65z" clip-rule="evenodd"/><path fill="#979797" fill-rule="evenodd" d="M16.642 7.722c.351-.18.53-.515.53-.95 0-.336-.08-.602-.256-.771v-.229l-.31-.003c-2.774-.025-4.336.25-4.789.936-.458.695-.418 1.288.205 1.576l.276-.007c1.347-.702 2.717-.877 4.126-.527l.218-.025zm-4.564-.845c.366-.554 1.874-.82 4.525-.795v.079c.171.082.257.285.257.61s-.12.55-.36.673c-1.484-.369-2.933-.184-4.347.553-.415-.192-.44-.565-.075-1.12z" clip-rule="evenodd"/><path fill="#F7FCFF" d="M16.603 6.082c-2.651-.024-4.16.24-4.525.795-.365.555-.34.928.075 1.12 1.414-.737 2.863-.922 4.346-.553.24-.123.36-.348.36-.673 0-.325-.085-.528-.256-.61v-.08z"/></g></svg>
